assets/dude/Design–Tammy.svg

<svg width="509" height="110" viewBox="0 0 509 110" fill="none" xmlns="http://www.w3.org/2000/svg">
<path d="M86.3724 37.92C86.6524 26.16 88.8924 15.24 88.8924 13.98C88.8924 12.72 88.1924 12.02 86.9324 12.02C58.7924 12.02 63.4124 2.77996 44.7924 2.77996C26.1724 2.77996 30.7924 12.02 2.65238 12.02C1.39238 12.02 0.692383 12.72 0.692383 13.98C0.692383 15.24 3.21238 27.28 3.21238 39.74C3.21238 40.44 3.77238 41 4.47238 41H18.3324C19.0324 41 19.5924 41.56 19.5924 42.26V67.46C19.5924 68.16 19.0324 68.72 18.3324 68.72H4.47238C3.77238 68.72 3.21238 69.28 3.21238 69.98C3.21238 82.44 0.692383 94.48 0.692383 95.74C0.692383 97 1.39238 97.7 2.65238 97.7C30.7924 97.7 26.1724 106.94 44.7924 106.94C63.4124 106.94 58.7924 97.7 86.9324 97.7C88.1924 97.7 88.8924 97 88.8924 95.74C88.8924 94.48 86.6524 83.56 86.3724 71.8V37.92ZM76.2924 49.82V59.9C76.2924 64.8 72.3724 68.72 67.4724 68.72H30.9324C30.2324 68.72 29.6724 68.16 29.6724 67.46V42.26C29.6724 41.56 30.2324 41 30.9324 41H67.4724C72.3724 41 76.2924 44.92 76.2924 49.82Z" fill="#FF1C31"/>
<path d="M181.255 62.84C181.255 62.14 180.695 61.58 179.995 61.58H172.715C172.015 61.58 171.455 62.14 171.455 62.84C171.455 66.34 168.655 68.72 165.155 68.72H125.815C125.115 68.72 124.555 68.16 124.555 67.46V59.9C124.555 59.2 125.115 58.64 125.815 58.64H137.575C138.275 58.64 138.835 59.2 138.835 59.9V61.16C138.835 61.86 139.395 62.42 140.095 62.42H158.995C159.695 62.42 160.255 61.86 160.255 61.16V48.56C160.255 47.86 159.695 47.3 158.995 47.3H140.095C139.395 47.3 138.835 47.86 138.835 48.56V49.82C138.835 50.52 138.275 51.08 137.575 51.08H125.815C125.115 51.08 124.555 50.52 124.555 49.82V42.26C124.555 41.56 125.115 41 125.815 41H165.155C168.655 41 171.455 43.38 171.455 46.88C171.455 47.58 172.015 48.14 172.715 48.14H179.995C180.695 48.14 181.255 47.58 181.255 46.88V39.74C181.255 27.28 183.775 15.24 183.775 13.98C183.775 12.72 183.075 12.02 181.815 12.02C153.675 12.02 158.295 2.77996 139.675 2.77996C121.055 2.77996 125.675 12.02 97.5352 12.02C96.2752 12.02 95.5752 12.72 95.5752 13.98C95.5752 15.24 98.0952 27.28 98.0952 39.74C98.0952 40.44 98.6552 41 99.3552 41H113.215C113.915 41 114.475 41.56 114.475 42.26V67.46C114.475 68.16 113.915 68.72 113.215 68.72H99.3552C98.6552 68.72 98.0952 69.28 98.0952 69.98C98.0952 82.44 95.5752 94.48 95.5752 95.74C95.5752 97 96.2752 97.7 97.5352 97.7C125.675 97.7 121.055 106.94 139.675 106.94C158.295 106.94 153.675 97.7 181.815 97.7C183.075 97.7 183.775 97 183.775 95.74C183.775 94.48 181.255 82.44 181.255 69.98V62.84Z" fill="#FF1C31"/>
<path d="M261.291 71.1C261.291 37.92 213.411 59.62 213.411 44.5C213.411 42.4 215.511 40.72 217.611 40.72H241.691C245.191 40.72 247.991 43.1 247.991 46.6C247.991 47.3 248.551 47.86 249.251 47.86H256.531C257.231 47.86 257.791 47.3 257.791 46.6V40.58C257.791 28.12 260.311 16.08 260.311 14.82C260.311 13.56 259.611 12.86 258.351 12.86C240.991 12.86 244.771 1.79997 226.151 1.79997C207.531 1.79997 211.311 12.86 193.951 12.86C192.691 12.86 191.991 13.56 191.991 14.82C191.991 16.08 194.511 28.12 194.511 40.58C194.511 70.82 242.391 50.66 242.391 65.08C242.391 67.18 240.711 69 238.611 69H209.351C205.851 69 203.051 66.62 203.051 63.12C203.051 62.42 202.491 61.86 201.791 61.86H194.511C193.811 61.86 193.251 62.42 193.251 63.12V70.96C193.251 83.42 190.731 95.46 190.731 96.72C190.731 97.98 191.431 98.68 192.691 98.68C210.051 98.68 208.651 109.74 227.271 109.74C245.891 109.74 244.491 98.68 261.851 98.68C263.111 98.68 263.811 97.98 263.811 96.72C263.811 95.46 261.291 83.56 261.291 71.1Z" fill="#FF1C31"/>
<path d="M298.598 42.26C298.598 41.56 299.158 41 299.858 41H313.718C314.418 41 314.978 40.44 314.978 39.74C314.978 27.28 317.498 15.24 317.498 13.98C317.498 12.72 316.798 12.02 315.538 12.02C309.378 12.02 302.098 4.73996 293.558 4.73996C285.018 4.73996 277.738 12.02 271.578 12.02C270.318 12.02 269.618 12.72 269.618 13.98C269.618 15.24 272.138 27.28 272.138 39.74C272.138 40.44 272.698 41 273.398 41H287.258C287.958 41 288.518 41.56 288.518 42.26V67.46C288.518 68.16 287.958 68.72 287.258 68.72H273.398C272.698 68.72 272.138 69.28 272.138 69.98C272.138 82.44 269.618 94.48 269.618 95.74C269.618 97 270.318 97.7 271.578 97.7C277.738 97.7 285.018 104.98 293.558 104.98C302.098 104.98 309.378 97.7 315.538 97.7C316.798 97.7 317.498 97 317.498 95.74C317.498 94.48 314.978 82.44 314.978 69.98C314.978 69.28 314.418 68.72 313.718 68.72H299.858C299.158 68.72 298.598 68.16 298.598 67.46V42.26Z" fill="#FF1C31"/>
<path d="M398.929 53.88C398.929 53.18 398.369 52.62 397.669 52.62H373.729C373.029 52.62 372.469 53.18 372.469 53.88V58.92C372.469 59.62 373.029 60.18 373.729 60.18H387.589C388.289 60.18 388.849 60.74 388.849 61.44V63.12C388.849 66.62 386.049 69 382.549 69H347.129C340.969 69 335.929 63.96 335.929 57.8V51.92C335.929 45.76 340.969 40.72 347.129 40.72H382.829C386.329 40.72 389.129 43.1 389.129 46.6C389.129 47.3 389.689 47.86 390.389 47.86H397.669C398.369 47.86 398.929 47.3 398.929 46.6V39.74C398.929 27.28 401.449 15.24 401.449 13.98C401.449 12.72 400.749 12.02 399.489 12.02C382.129 12.02 381.429 0.959961 362.809 0.959961C344.189 0.959961 343.489 12.02 326.129 12.02C324.869 12.02 324.169 12.72 324.169 13.98C324.169 15.24 326.689 27.28 326.689 39.74V69.98C326.689 82.44 324.169 94.48 324.169 95.74C324.169 97 324.869 97.7 326.129 97.7C343.489 97.7 344.189 108.76 362.809 108.76C381.429 108.76 382.129 97.7 399.489 97.7C400.749 97.7 401.449 97 401.449 95.74C401.449 94.48 398.929 82.44 398.929 69.98V53.88Z" fill="#FF1C31"/>
<path d="M506.954 12.02C500.794 12.02 493.514 4.73996 484.974 4.73996C476.434 4.73996 469.154 12.02 462.994 12.02C461.734 12.02 461.034 12.72 461.034 13.98C461.034 15.24 463.554 27.28 463.554 39.74C463.554 40.44 464.114 41 464.814 41H478.674C479.374 41 479.934 41.56 479.934 42.26V67.46C479.934 68.16 479.374 68.72 478.674 68.72H470.834C469.714 68.72 469.154 68.16 469.154 68.16L451.234 42.96C451.234 42.96 450.674 42.12 450.674 41.56C450.674 41.28 450.814 41 451.514 41H452.214C452.914 41 453.474 40.44 453.474 39.74C453.474 27.28 455.994 15.24 455.994 13.98C455.994 12.72 455.294 12.02 454.034 12.02C447.874 12.02 440.594 4.73996 432.054 4.73996C423.514 4.73996 416.234 12.02 410.074 12.02C408.814 12.02 408.114 12.72 408.114 13.98C408.114 15.24 410.634 27.28 410.634 39.74C410.634 40.44 411.194 41 411.894 41H425.754C426.454 41 427.014 41.56 427.014 42.26V67.46C427.014 68.16 426.454 68.72 425.754 68.72H411.894C411.194 68.72 410.634 69.28 410.634 69.98C410.634 82.44 408.114 94.48 408.114 95.74C408.114 97 408.814 97.7 410.074 97.7C416.234 97.7 423.514 104.98 432.054 104.98C440.594 104.98 447.874 97.7 454.034 97.7C455.294 97.7 455.994 97 455.994 95.74C455.994 94.48 453.474 82.44 453.474 69.98C453.474 69.28 452.914 68.72 452.214 68.72H438.354C437.654 68.72 437.094 68.16 437.094 67.46V43.1C437.094 42.54 437.374 42.26 437.654 42.26C438.354 42.26 439.054 43.38 439.054 43.38L480.914 101.9C481.754 103.16 483.294 104 484.974 104C487.774 104 490.014 101.76 490.014 98.96V42.26C490.014 41.56 490.574 41 491.274 41H505.134C505.834 41 506.394 40.44 506.394 39.74C506.394 27.28 508.914 15.24 508.914 13.98C508.914 12.72 508.214 12.02 506.954 12.02Z" fill="#FF1C31"/>
</svg>

<svg xmlns="http://www.w3.org/2000/svg" fill="none" viewBox="0 0 509 110"><path fill="#FF1C31" d="M86.372 37.92c.28-11.76 2.52-22.68 2.52-23.94 0-1.26-.7-1.96-1.96-1.96-28.14 0-23.52-9.24-42.14-9.24s-14 9.24-42.14 9.24c-1.26 0-1.96.7-1.96 1.96s2.52 13.3 2.52 25.76c0 .7.56 1.26 1.26 1.26h13.86c.7 0 1.26.56 1.26 1.26v25.2c0 .7-.56 1.26-1.26 1.26H4.472c-.7 0-1.26.56-1.26 1.26 0 12.46-2.52 24.5-2.52 25.76 0 1.26.7 1.96 1.96 1.96 28.14 0 23.52 9.24 42.14 9.24s14-9.24 42.14-9.24c1.26 0 1.96-.7 1.96-1.96s-2.24-12.18-2.52-23.94V37.92zm-10.08 11.9V59.9c0 4.9-3.92 8.82-8.82 8.82h-36.54c-.7 0-1.26-.56-1.26-1.26v-25.2c0-.7.56-1.26 1.26-1.26h36.54c4.9 0 8.82 3.92 8.82 8.82zM181.255 62.84c0-.7-.56-1.26-1.26-1.26h-7.28c-.7 0-1.26.56-1.26 1.26 0 3.5-2.8 5.88-6.3 5.88h-39.34c-.7 0-1.26-.56-1.26-1.26V59.9c0-.7.56-1.26 1.26-1.26h11.76c.7 0 1.26.56 1.26 1.26v1.26c0 .7.56 1.26 1.26 1.26h18.9c.7 0 1.26-.56 1.26-1.26v-12.6c0-.7-.56-1.26-1.26-1.26h-18.9c-.7 0-1.26.56-1.26 1.26v1.26c0 .7-.56 1.26-1.26 1.26h-11.76c-.7 0-1.26-.56-1.26-1.26v-7.56c0-.7.56-1.26 1.26-1.26h39.34c3.5 0 6.3 2.38 6.3 5.88 0 .7.56 1.26 1.26 1.26h7.28c.7 0 1.26-.56 1.26-1.26v-7.14c0-12.46 2.52-24.5 2.52-25.76 0-1.26-.7-1.96-1.96-1.96-28.14 0-23.52-9.24-42.14-9.24s-14 9.24-42.14 9.24c-1.26 0-1.96.7-1.96 1.96s2.52 13.3 2.52 25.76c0 .7.56 1.26 1.26 1.26h13.86c.7 0 1.26.56 1.26 1.26v25.2c0 .7-.56 1.26-1.26 1.26h-13.86c-.7 0-1.26.56-1.26 1.26 0 12.46-2.52 24.5-2.52 25.76 0 1.26.7 1.96 1.96 1.96 28.14 0 23.52 9.24 42.14 9.24s14-9.24 42.14-9.24c1.26 0 1.96-.7 1.96-1.96s-2.52-13.3-2.52-25.76v-7.14zM261.291 71.1c0-33.18-47.88-11.48-47.88-26.6 0-2.1 2.1-3.78 4.2-3.78h24.08c3.5 0 6.3 2.38 6.3 5.88 0 .7.56 1.26 1.26 1.26h7.28c.7 0 1.26-.56 1.26-1.26v-6.02c0-12.46 2.52-24.5 2.52-25.76 0-1.26-.7-1.96-1.96-1.96-17.36 0-13.58-11.06-32.2-11.06-18.62 0-14.84 11.06-32.2 11.06-1.26 0-1.96.7-1.96 1.96s2.52 13.3 2.52 25.76c0 30.24 47.88 10.08 47.88 24.5 0 2.1-1.68 3.92-3.78 3.92h-29.26c-3.5 0-6.3-2.38-6.3-5.88 0-.7-.56-1.26-1.26-1.26h-7.28c-.7 0-1.26.56-1.26 1.26v7.84c0 12.46-2.52 24.5-2.52 25.76 0 1.26.7 1.96 1.96 1.96 17.36 0 15.96 11.06 34.58 11.06 18.62 0 17.22-11.06 34.58-11.06 1.26 0 1.96-.7 1.96-1.96s-2.52-13.16-2.52-25.62zM298.598 42.26c0-.7.56-1.26 1.26-1.26h13.86c.7 0 1.26-.56 1.26-1.26 0-12.46 2.52-24.5 2.52-25.76 0-1.26-.7-1.96-1.96-1.96-6.16 0-13.44-7.28-21.98-7.28-8.54 0-15.82 7.28-21.98 7.28-1.26 0-1.96.7-1.96 1.96s2.52 13.3 2.52 25.76c0 .7.56 1.26 1.26 1.26h13.86c.7 0 1.26.56 1.26 1.26v25.2c0 .7-.56 1.26-1.26 1.26h-13.86c-.7 0-1.26.56-1.26 1.26 0 12.46-2.52 24.5-2.52 25.76 0 1.26.7 1.96 1.96 1.96 6.16 0 13.44 7.28 21.98 7.28 8.54 0 15.82-7.28 21.98-7.28 1.26 0 1.96-.7 1.96-1.96s-2.52-13.3-2.52-25.76c0-.7-.56-1.26-1.26-1.26h-13.86c-.7 0-1.26-.56-1.26-1.26v-25.2zM398.929 53.88c0-.7-.56-1.26-1.26-1.26h-23.94c-.7 0-1.26.56-1.26 1.26v5.04c0 .7.56 1.26 1.26 1.26h13.86c.7 0 1.26.56 1.26 1.26v1.68c0 3.5-2.8 5.88-6.3 5.88h-35.42c-6.16 0-11.2-5.04-11.2-11.2v-5.88c0-6.16 5.04-11.2 11.2-11.2h35.7c3.5 0 6.3 2.38 6.3 5.88 0 .7.56 1.26 1.26 1.26h7.28c.7 0 1.26-.56 1.26-1.26v-6.86c0-12.46 2.52-24.5 2.52-25.76 0-1.26-.7-1.96-1.96-1.96-17.36 0-18.06-11.06-36.68-11.06s-19.32 11.06-36.68 11.06c-1.26 0-1.96.7-1.96 1.96s2.52 13.3 2.52 25.76v30.24c0 12.46-2.52 24.5-2.52 25.76 0 1.26.7 1.96 1.96 1.96 17.36 0 18.06 11.06 36.68 11.06s19.32-11.06 36.68-11.06c1.26 0 1.96-.7 1.96-1.96s-2.52-13.3-2.52-25.76v-16.1zM506.954 12.02c-6.16 0-13.44-7.28-21.98-7.28-8.54 0-15.82 7.28-21.98 7.28-1.26 0-1.96.7-1.96 1.96s2.52 13.3 2.52 25.76c0 .7.56 1.26 1.26 1.26h13.86c.7 0 1.26.56 1.26 1.26v25.2c0 .7-.56 1.26-1.26 1.26h-7.84c-1.12 0-1.68-.56-1.68-.56l-17.92-25.2s-.56-.84-.56-1.4c0-.28.14-.56.84-.56h.7c.7 0 1.26-.56 1.26-1.26 0-12.46 2.52-24.5 2.52-25.76 0-1.26-.7-1.96-1.96-1.96-6.16 0-13.44-7.28-21.98-7.28-8.54 0-15.82 7.28-21.98 7.28-1.26 0-1.96.7-1.96 1.96s2.52 13.3 2.52 25.76c0 .7.56 1.26 1.26 1.26h13.86c.7 0 1.26.56 1.26 1.26v25.2c0 .7-.56 1.26-1.26 1.26h-13.86c-.7 0-1.26.56-1.26 1.26 0 12.46-2.52 24.5-2.52 25.76 0 1.26.7 1.96 1.96 1.96 6.16 0 13.44 7.28 21.98 7.28 8.54 0 15.82-7.28 21.98-7.28 1.26 0 1.96-.7 1.96-1.96s-2.52-13.3-2.52-25.76c0-.7-.56-1.26-1.26-1.26h-13.86c-.7 0-1.26-.56-1.26-1.26V43.1c0-.56.28-.84.56-.84.7 0 1.4 1.12 1.4 1.12l41.86 58.52c.84 1.26 2.38 2.1 4.06 2.1 2.8 0 5.04-2.24 5.04-5.04v-56.7c0-.7.56-1.26 1.26-1.26h13.86c.7 0 1.26-.56 1.26-1.26 0-12.46 2.52-24.5 2.52-25.76 0-1.26-.7-1.96-1.96-1.96z"/></svg>
